X:5152
T:Please to See the King
O:england
M:3/4
L:1/4
Q:75
K:Ab
A/F/ |E        y   A    B  | A2    A/F/ |E   A/   B/  c/A/  |B2      A/B/|
w:Joy,_ health,    love  and peace be_   all here in  this  place. By_
M:4/4
L:1/4
(c>B) d/c/ B|\
M:3/4
L:1/4
F2 F/E/|F/G/ A/c/ B/G/ A2 |]
w:your leave we_ will sing con - cern - ing_ our_ King.


